brandFactory_export/1.Light/Cambiar Plan_1Light.svg

<?xml version="1.0" encoding="UTF-8"?>
<svg width="24px" height="24px" viewBox="0 0 24 24" version="1.1" xmlns="http://www.w3.org/2000/svg" xmlns:xlink="http://www.w3.org/1999/xlink">
    <title>1.Light/Cambiar Plan_1Light</title>
    <g id="Symbols" stroke="none" stroke-width="1" fill="none" fill-rule="evenodd">
        <g id="1.Light/Cambiar-Plan_1Light" fill="#5CB615" fill-rule="nonzero">
            <path d="M18.0302521,2.01008403 C18.1210084,2.01008403 18.205042,2.04705882 18.2689076,2.10756303 L23.512605,7.3512605 C23.5450447,7.38370015 23.5696793,7.42134314 23.5860684,7.4624275 C23.603825,7.50216734 23.6134454,7.5466534 23.6134454,7.59327731 L23.61,7.6215901 L23.610084,20.7630252 C23.610084,20.9781513 23.5932773,21.2268908 23.4521008,21.4218487 C23.3109244,21.6168067 23.0857143,21.7176471 22.7764706,21.7176471 L11.4621849,21.7176471 C10.8403361,21.7176471 10.4840336,21.3579832 10.4840336,20.7327731 L10.4840336,2.97478992 C10.4840336,2.36302521 10.8403361,2.01344538 11.4588235,2.01008403 C12.0773109,2.00672269 17.9697479,2.01008403 18.0302521,2.01008403 Z M4.63193277,10.5310924 C4.66201147,10.5310924 4.6912004,10.5350964 4.71899287,10.5425977 C4.77585669,10.5580013 4.82775777,10.5879952 4.87058824,10.6285714 L7.78487395,13.5428571 C7.8487395,13.6067227 7.88235294,13.6907563 7.88235294,13.7815126 L7.88235294,21.0184874 C7.88235294,21.4252101 7.62016807,21.6907563 7.21008403,21.6907563 L4,21.6941176 L0.685714286,21.6941176 C0.262184874,21.6941176 9.58704227e-11,21.4285714 9.58704227e-11,21.0016807 L9.58704227e-11,11.2134454 C9.58704227e-11,10.7932773 0.262184874,10.5310924 0.685714286,10.5310924 L4.63193277,10.5310924 L4.63193277,10.5310924 Z M17.697,2.6855901 L11.4621849,2.68571429 C11.2,2.68571429 11.1596639,2.75630252 11.1596639,2.97815126 L11.1596639,20.7361345 C11.1596639,20.9915966 11.2134454,21.0487395 11.4655462,21.0487395 C11.9462185,21.0466853 14.8747588,21.0458865 17.2639313,21.0455758 L22.7764706,21.0453782 C22.8201681,21.0487395 22.8672269,21.0420168 22.907563,21.0285714 C22.9142857,21.0117647 22.9378151,20.9512605 22.9378151,20.7630252 L22.937,7.9285901 L20.6554622,7.92941176 C18.8302521,7.92941176 17.697479,6.79663866 17.697479,4.97142857 L17.697,2.6855901 Z M4.295,11.2065901 L0.672268908,11.2067227 L0.672268908,21.0218487 L7.21008403,21.0218487 L7.21,14.1175901 L6.37983193,14.1176471 C5.70756303,14.1176471 5.18655462,13.9361345 4.8302521,13.5831933 C4.47394958,13.2302521 4.29579832,12.7058824 4.29579832,12.0336134 L4.295,11.2065901 Z M5.80504202,18.9882353 C5.98991597,18.9882353 6.14117647,19.1394958 6.14117647,19.3243697 C6.14117647,19.5092437 5.98991597,19.6605042 5.80504202,19.6605042 L2.0907563,19.6605042 C1.90588235,19.6605042 1.75462185,19.5092437 1.75462185,19.3243697 C1.75462185,19.1394958 1.90588235,18.9882353 2.0907563,18.9882353 L5.80504202,18.9882353 Z M5.80504202,17.2403361 C5.98991597,17.2403361 6.14117647,17.3915966 6.14117647,17.5764706 C6.14117647,17.7613445 5.98991597,17.912605 5.80504202,17.912605 L2.0907563,17.912605 C1.90588235,17.912605 1.75462185,17.7613445 1.75462185,17.5764706 C1.75462185,17.3915966 1.90588235,17.2403361 2.0907563,17.2403361 L5.80504202,17.2403361 Z M20.6957983,17.0957983 C20.8806723,17.0957983 21.0319328,17.2470588 21.0319328,17.4319328 C21.0319328,17.6168067 20.8806723,17.7680672 20.6957983,17.7680672 L13.405042,17.7680672 C13.2201681,17.7680672 13.0689076,17.6168067 13.0689076,17.4319328 C13.0689076,17.2470588 13.2201681,17.0957983 13.405042,17.0957983 L20.6957983,17.0957983 Z M5.80504202,15.492437 C5.98991597,15.492437 6.14117647,15.6436975 6.14117647,15.8285714 C6.14117647,16.0134454 5.98991597,16.1647059 5.80504202,16.1647059 L2.0907563,16.1647059 C1.90588235,16.1647059 1.75462185,16.0134454 1.75462185,15.8285714 C1.75462185,15.6436975 1.90588235,15.492437 2.0907563,15.492437 L5.80504202,15.492437 Z M20.6957983,13.7915966 C20.8806723,13.7915966 21.0319328,13.9428571 21.0319328,14.1277311 C21.0319328,14.312605 20.8806723,14.4638655 20.6957983,14.4638655 L13.405042,14.4638655 C13.2201681,14.4638655 13.0689076,14.312605 13.0689076,14.1277311 C13.0689076,13.9428571 13.2201681,13.7915966 13.405042,13.7915966 L20.6957983,13.7915966 Z M6.732,13.4445901 L4.968,11.6805901 L4.96806723,12.0336134 C4.96806723,13.0084034 5.40504202,13.4453782 6.37983193,13.4453782 L6.732,13.4445901 Z M20.6957983,10.507563 C20.8806723,10.507563 21.0319328,10.6588235 21.0319328,10.8436975 C21.0319328,11.0285714 20.8806723,11.1798319 20.6957983,11.1798319 L13.405042,11.1798319 C13.2201681,11.1798319 13.0689076,11.0285714 13.0689076,10.8436975 C13.0689076,10.6588235 13.2201681,10.507563 13.405042,10.507563 L20.6957983,10.507563 Z M6.47058824,3.69747899 C6.50420168,3.72773109 7.30420168,4.40672269 7.59663866,4.69915966 C7.98319328,5.08571429 7.98655462,5.52941176 7.60336134,5.9092437 C7.45546218,6.05714286 6.57142857,6.81680672 6.47058824,6.90084034 C6.41008403,6.9512605 6.33277311,6.98151261 6.25210084,6.98151261 C6.06722689,6.98151261 5.91596639,6.8302521 5.91596639,6.64537815 C5.91596639,6.54789916 5.95966387,6.45378151 6.03361345,6.38991597 C6.29330768,6.16667004 6.65643911,5.8507938 6.89491952,5.64003344 L5.5697479,5.64033613 C4.69915966,5.64033613 4.04705882,5.84537815 3.62689076,6.2487395 C3.19327731,6.66554622 2.97142857,7.33781513 2.97142857,8.24201681 L2.97142857,9.24033613 C2.97478992,9.42521008 2.82352941,9.57647059 2.63865546,9.57647059 C2.45378151,9.57647059 2.30252101,9.42521008 2.30252101,9.24033613 L2.30252101,8.24201681 C2.30252101,7.14957983 2.59159664,6.31596639 3.16302521,5.76470588 C3.71092437,5.23697479 4.5210084,4.96806723 5.5697479,4.96806723 L6.90199834,4.9681149 C6.55661783,4.65300841 6.0416742,4.2137772 6.03361345,4.20840336 C5.89243697,4.08739496 5.87563025,3.87563025 5.99663866,3.73445378 C6.11764706,3.59327731 6.32941176,3.57647059 6.47058824,3.69747899 Z M22.463,7.2565901 L18.369,3.1595901 L18.3697479,4.97142857 C18.3697479,6.42352941 19.2033613,7.25714286 20.6554622,7.25714286 L22.463,7.2565901 Z" id="Cambiar-Plan_1Light"></path>
        </g>
    </g>
</svg>

<svg width="24" height="24" viewBox="0 0 24 24" xmlns="http://www.w3.org/2000/svg"><path d="M18.03 2.01c.091 0 .175.037.239.098l5.244 5.243a.33.33 0 01.073.111.32.32 0 01.027.131l-.003.029v13.141c0 .215-.017.464-.158.659-.141.195-.366.296-.676.296H11.462c-.622 0-.978-.36-.978-.985V2.975c0-.612.356-.962.975-.965.618-.003 6.51 0 6.571 0zM4.632 10.531a.357.357 0 01.239.097l2.914 2.915a.333.333 0 01.097.239v7.236c0 .407-.262.673-.672.673L4 21.694H.686c-.424 0-.686-.265-.686-.692v-9.789c0-.42.262-.682.686-.682h3.946zm13.065-7.845h-6.235c-.262 0-.302.07-.302.292v17.758c0 .256.053.313.306.313.48-.002 3.409-.003 5.798-.003h5.512a.344.344 0 00.132-.017c.006-.017.03-.078.03-.266l-.001-12.834h-2.282c-1.825 0-2.958-1.132-2.958-2.958V2.686zm-13.402 8.52H.672v9.816H7.21v-6.904h-.83c-.672 0-1.193-.182-1.55-.535-.356-.353-.534-.877-.534-1.55l-.001-.826zm1.51 7.782c.185 0 .336.151.336.336a.337.337 0 01-.336.337H2.091a.337.337 0 01-.336-.337c0-.185.15-.336.336-.336h3.714zm0-1.748c.185 0 .336.152.336.336a.337.337 0 01-.336.337H2.091a.337.337 0 01-.336-.337c0-.184.15-.336.336-.336h3.714zm14.89-.144c.186 0 .337.151.337.336a.337.337 0 01-.336.336h-7.291a.337.337 0 01-.336-.336c0-.185.151-.336.336-.336h7.29zm-14.89-1.604a.337.337 0 010 .672H2.091a.337.337 0 01-.336-.335c0-.185.15-.337.336-.337h3.714zm14.89-1.7c.186 0 .337.15.337.336a.337.337 0 01-.336.336h-7.291a.337.337 0 01-.336-.336c0-.185.151-.336.336-.336h7.29zm-13.963-.347L4.968 11.68v.353c0 .974.437 1.411 1.412 1.411h.352zm13.964-2.937c.185 0 .336.15.336.336a.337.337 0 01-.336.336h-7.291a.337.337 0 01-.336-.336c0-.185.151-.336.336-.336h7.29zM6.47 3.698c.033.03.833.709 1.126 1.001.386.387.39.83.006 1.21-.148.148-1.032.908-1.132.992a.337.337 0 01-.437-.51c.26-.224.622-.54.86-.751H5.57c-.87 0-1.523.205-1.943.609-.434.417-.656 1.089-.656 1.993v.998a.332.332 0 01-.332.336.337.337 0 01-.336-.336v-.998c0-1.092.289-1.926.86-2.477.548-.528 1.358-.797 2.407-.797h1.332c-.345-.315-.86-.754-.868-.76a.336.336 0 11.437-.51zm15.992 3.559L18.369 3.16V4.97c0 1.453.834 2.286 2.286 2.286h1.808z" fill="#5CB615" fill-rule="nonzero"/></svg>
